packages/bezier-icons/icons/naver.svg

<svg width="24" height="24" viewBox="0 0 24 24" fill="none" xmlns="http://www.w3.org/2000/svg">
<path fill-rule="evenodd" clip-rule="evenodd" d="M12 2C17.522 2 22 6.478 22 12C22 17.522 17.522 22 12 22C6.477 22 2 17.522 2 12C2 6.478 6.477 2 12 2ZM6.99982 7.5077V16.5235H10.3738L10.3938 12.0489L13.4231 16.5235H16.82V7.5077L13.4703 7.49988L13.4608 11.9898L10.3726 7.5077H6.99982ZM2.93201 12.0144C2.93201 11.9695 2.93234 11.9246 2.93299 11.8799L2.93298 12.1482C2.93233 12.1037 2.93201 12.0591 2.93201 12.0144ZM12.2244 3.01906L11.6406 3.01903C11.7374 3.01595 11.8345 3.0144 11.932 3.0144C12.0298 3.0144 12.1273 3.01597 12.2244 3.01906ZM20.9278 12.2925L20.9277 11.7327C20.9306 11.8263 20.932 11.9202 20.932 12.0144C20.932 12.1074 20.9306 12.2001 20.9278 12.2925ZM11.6514 21.0101L12.2143 21.0101C12.1205 21.0129 12.0264 21.0144 11.932 21.0144C11.8381 21.0144 11.7446 21.013 11.6514 21.0101Z" fill="#313234"/>
</svg>

<svg xmlns="http://www.w3.org/2000/svg" width="24" height="24" fill="none" viewBox="0 0 24 24"><path fill="#313234" fill-rule="evenodd" d="M12 2c5.522 0 10 4.478 10 10s-4.478 10-10 10S2 17.522 2 12 6.477 2 12 2M7 7.508v9.016h3.374l.02-4.475 3.03 4.474h3.396V7.508L13.47 7.5l-.01 4.49-3.087-4.482zm-4.068 4.506.001-.134v.268zm9.292-8.995h-.583a9 9 0 0 1 .583 0m8.704 9.274v-.56a9 9 0 0 1 0 .56M11.65 21.01h.563a10 10 0 0 1-.563 0" clip-rule="evenodd"/></svg>
